crosshairs-gps.svg

<svg fill="currentColor" viewBox="0 0 24 24"><path d="M12 8a4 4 0 0 1 4 4 4 4 0 0 1-4 4 4 4 0 0 1-4-4 4 4 0 0 1 4-4m-8.95 5H1v-2h2.05C3.5 6.83 6.83 3.5 11 3.05V1h2v2.05c4.17.45 7.5 3.78 7.95 7.95H23v2h-2.05c-.45 4.17-3.78 7.5-7.95 7.95V23h-2v-2.05C6.83 20.5 3.5 17.17 3.05 13M12 5a7 7 0 0 0-7 7 7 7 0 0 0 7 7 7 7 0 0 0 7-7 7 7 0 0 0-7-7"/></svg>

<svg  viewBox="0 0 24 24" fill="currentColor"><path  d="M12,8A4,4 0 0,1 16,12A4,4 0 0,1 12,16A4,4 0 0,1 8,12A4,4 0 0,1 12,8M3.05,13H1V11H3.05C3.5,6.83 6.83,3.5 11,3.05V1H13V3.05C17.17,3.5 20.5,6.83 20.95,11H23V13H20.95C20.5,17.17 17.17,20.5 13,20.95V23H11V20.95C6.83,20.5 3.5,17.17 3.05,13M12,5A7,7 0 0,0 5,12A7,7 0 0,0 12,19A7,7 0 0,0 19,12A7,7 0 0,0 12,5Z"/></svg>
